X: 755
M:3/2
L:1/8
K:Gm
f3e defe dcBA | B2F2_AcBA GEDE | g3f efgf edc=B | c2G2_BdcB AF=EF |
f3e defe dcBA | B2F2_AcBA GEDC | DFB2CEA2B,DGF | EDCB, A,B,CA, B,4 ||

